X: 1
T: Antigonish Polka No.1
R: polka, reel
Z: 2020 John Chambers <jc:trillian.mit.edu>
S: https://www.facebook.com/groups/Fiddletuneoftheday/ 2020-09-02
S: https://www.facebook.com/groups/Fiddletuneoftheday/photos/
D: Bill Spence with Fennig's All-Stars, "Fennigmania", Front Hall Records FHR-024, 1981
D: Winston "Scotty' Fitzgerald, "A Selection of New Jigs, Reels, Strathspeys, Hornpipes And Waltzes", Rodeo Records SCX5-59
M: 2/4
L: 1/16
K: D
FG \
| "D"A2f2 fedB | A2AB AGFG | d2cd "D#dim"b2a2 | "A7"gfga gfed |
| "A7"c2cc cBAB | "D"d2dc defg | "A7"a2^ga b2c2 | "D"d6 :|
|: FG \
| "D"A2^GA Bcde | f6 AA | A2AA BAFA | f4 fagf |
| "A7"eagf edcB | Aagf edcB | A2AA BAFA | "D"d6 :|
